X: 16616
T: Handsome Young Maidens, The
R: jig
M: 6/8
K: Amajor
aed cdB|Ace aga|bee dee|bee dee|Bee bag|aed cdB|
Ace aga|bee dee|1 BAG A2g:|2 BAG A2 B||
|:c3 ABc|dfe f3|efa fec|B2f fed|c2A EAc|
dfe f3|1 efe fec|BAG A2B:|2 efe fef|gfg bag||

